images/icon/empowerment.svg

<svg height="140" viewBox="0 0 140 140" width="140" xmlns="http://www.w3.org/2000/svg"><g transform="scale(5.83333333)"><g fill="#000001"><circle cx="4.17" cy="9.95" r="2.45"/><circle cx="19.83" cy="9.95" r="2.45"/><path d="m11.5 4.5a1 1 0 0 1 -1-1v-2a1 1 0 0 1 2 0v2a1 1 0 0 1 -1 1z"/></g><path d="m17.37 2.88a1 1 0 0 0 -1.41 0l-1.42 1.41a1 1 0 0 0 0 1.42 1 1 0 0 0 1.42 0l1.41-1.42a1 1 0 0 0 0-1.41z"/><path d="m7.75 6a1 1 0 0 1 -.75-.29l-1.37-1.42a1 1 0 0 1 1.37-1.41l1.46 1.41a1 1 0 0 1 0 1.42 1 1 0 0 1 -.71.29z"/><path d="m16.4 23.5v-6.73a6.35 6.35 0 0 1 -5.4-4.32l-.84-2.53a1.46 1.46 0 0 1 1.13-1.92 1.51 1.51 0 0 1 1.64 1.06l.82 2.45a3.41 3.41 0 0 0 3.25 2.35h4.3a2 2 0 0 1 2 2v7.64z" fill="#000001"/><path d="m9.54 12.92v-.13a3.41 3.41 0 0 1 -2.54 1.07h-4.29a2 2 0 0 0 -2 2v7.64h6.89v-6.73a6.37 6.37 0 0 0 3.33-1.33 7.83 7.83 0 0 1 -1.39-2.52z"/></g></svg>

<svg xmlns="http://www.w3.org/2000/svg" viewBox="0 0 140 140" height="140" width="140">
  
<g transform="matrix(5.833333333333333,0,0,5.833333333333333,0,0)"><g>
    <circle cx="4.17" cy="9.95" r="2.45" style="fill: #000001"></circle>
    <circle cx="19.83" cy="9.95" r="2.45" style="fill: #000001"></circle>
    <path d="M11.5,4.5a1,1,0,0,1-1-1v-2a1,1,0,0,1,2,0v2A1,1,0,0,1,11.5,4.5Z" style="fill: #000001"></path>
    <path d="M17.37,2.88a1,1,0,0,0-1.41,0L14.54,4.29a1,1,0,0,0,0,1.42,1,1,0,0,0,1.42,0l1.41-1.42A1,1,0,0,0,17.37,2.88Z" style="fill: #000"></path>
    <path d="M7.75,6A1,1,0,0,1,7,5.71L5.63,4.29A1,1,0,0,1,7,2.88L8.46,4.29a1,1,0,0,1,0,1.42A1,1,0,0,1,7.75,6Z" style="fill: #000"></path>
    <path d="M16.4,23.5V16.77A6.35,6.35,0,0,1,11,12.45l-.84-2.53A1.46,1.46,0,0,1,11.29,8a1.51,1.51,0,0,1,1.64,1.06l.82,2.45A3.41,3.41,0,0,0,17,13.86h4.3a2,2,0,0,1,2,2V23.5Z" style="fill: #000001"></path>
    <path d="M9.54,12.92l0-.13A3.41,3.41,0,0,1,7,13.86H2.71a2,2,0,0,0-2,2V23.5H7.6V16.77a6.37,6.37,0,0,0,3.33-1.33A7.83,7.83,0,0,1,9.54,12.92Z" style="fill: #000"></path>
  </g></g></svg>
